X: 255
T: Brian the Brave
B: O'Neill's 255
N: "Tenderly"
N: "Collected by McFadden"
Z: 1997 by John Chambers <jc@trillian.mit.edu>
M: C
L: 1/8
K:A
(e>d) \
| c2A>B A2(G(3A/B/c/) | (d>c) (AG/F/) G2 (Ac/d/) | (e>d) (c<A) (d>c) (A<G) | A6 :|
|| (ef) \
| (gfga) g2(ef) | (gag)e d2 ((3efg) | (ab)(ag) ed ((3efg) | a6 (ba/g/) |
| f2 (fe/d/) e2 (ed/c/) | (dcde) (a3g) | (eage) d2(e<d) | c2A>G A2 ||


